X: 24256
T: Lord Seaforth
R: strathspey
M: 4/4
K: Gmajor
B>A|G<D D>E G>A B<G|c>A B<G E2 B>A|G<D D>E G>A B<e|1 d<B A<B G2:|2 d<B A<B G3||
g|(3efg d>g B>g d<B|c>A B<G E3 g|efg d>g B>g d<B|c>A d<B G3 g|
(3efg d>b c>a B<g|c>A B<G E2 B>A|G<D D>E G>A B<e|d<B A<B G2||

